docs/logo/light.svg

<svg width="160" height="61" viewBox="0 0 160 61" fill="none" xmlns="http://www.w3.org/2000/svg">
<g clip-path="url(#clip0_55_15)">
<path d="M130.75 0.384644C136.178 0.384644 141.047 3.19441 143.761 7.89636L157.975 32.5145L157.962 32.5087C160.561 37.0131 160.669 42.4415 158.242 47.0223C155.624 51.9661 150.38 55.0369 144.563 55.037H112.752C112.3 55.037 111.879 54.7951 111.649 54.4003C111.42 54.0054 111.42 53.5208 111.649 53.1259L115.568 46.3466C115.791 45.9517 116.218 45.7099 116.67 45.7098H144.958C147.016 45.7098 148.857 44.6451 149.883 42.8612C150.915 41.0773 150.915 38.9557 149.883 37.1718L135.669 12.5536C134.643 10.7698 132.802 9.70594 130.744 9.70593C128.686 9.70593 126.845 10.7698 125.819 12.5536L111.605 37.1718C111.491 37.3756 111.382 37.586 111.286 37.8153C111.267 37.8663 111.242 37.9113 111.217 37.9559L101.724 54.4003L100.901 55.7128L98.372 60.1024C98.1489 60.4973 97.7217 60.7391 97.2694 60.7391H89.4394C88.9871 60.7391 88.5662 60.4973 88.3368 60.1024C88.1075 59.7075 88.1077 59.223 88.3368 58.828L90.5253 55.037H66.8026C63.4833 55.037 60.349 53.9151 57.9853 51.87C56.6073 50.6793 55.4745 49.3415 54.5907 47.91C54.558 47.8668 54.5273 47.8214 54.4999 47.7733L34.2011 12.5731C33.1753 10.7892 31.3341 9.72455 29.2763 9.72449C27.2184 9.72449 25.3772 10.7892 24.3515 12.5731L10.1366 37.1913C9.10468 38.9751 9.10457 41.1033 10.1366 42.8807C11.1624 44.6583 13.0045 45.7225 15.0624 45.7225H44.9237C45.3761 45.7225 45.7969 45.9642 46.0263 46.3593C46.2556 46.7542 46.2556 47.2387 46.0263 47.6337L42.1142 54.412C41.8912 54.807 41.464 55.0497 41.0116 55.0497H14.495C11.1758 55.0497 8.04132 53.9218 5.67764 51.8768C-0.228467 46.7735 -1.6814 38.994 2.0585 32.5145L16.2665 7.88953C18.8724 3.3854 23.5166 0.582657 28.6962 0.391479C28.8809 0.38511 29.053 0.384644 29.2313 0.384644C34.6086 0.384644 39.6805 3.39214 42.4774 8.23425L55.4628 30.6073L68.58 7.8905C71.1858 3.38606 75.8309 0.582616 81.0106 0.391479C81.1953 0.385119 81.3675 0.384644 81.5458 0.384644C85.9992 0.384739 90.2551 2.42386 93.2177 5.97253C93.5552 6.38028 93.6058 6.9538 93.3446 7.41882L89.58 14.0194C89.357 14.4144 88.9361 14.6629 88.4774 14.663C88.0251 14.663 87.6043 14.4203 87.3749 14.0253L86.5282 12.5604C85.5025 10.7765 83.6603 9.71179 81.6024 9.71179C79.5447 9.71193 77.7033 10.7766 76.6776 12.5604L62.4638 37.1786C61.4317 38.9625 61.4317 41.0905 62.4638 42.868C63.4895 44.6455 65.3307 45.7098 67.3886 45.7098H95.911L117.76 7.87097C120.474 3.1883 125.335 0.384808 130.75 0.384644Z" fill="black"/>
</g>
<defs>
<clipPath id="clip0_55_15">
<rect width="160" height="60.3608" fill="white" transform="translate(0 0.384644)"/>
</clipPath>
</defs>
</svg>

<svg xmlns="http://www.w3.org/2000/svg" width="160" height="61" fill="none"><g clip-path="url(#a)"><path fill="#000" d="M130.75.385c5.428 0 10.297 2.81 13.011 7.511l14.214 24.618-.013-.005c2.599 4.504 2.707 9.932.28 14.513-2.618 4.944-7.862 8.015-13.679 8.015h-31.811c-.452 0-.873-.242-1.103-.637a1.268 1.268 0 0 1 0-1.274l3.919-6.78c.223-.394.65-.636 1.102-.636h28.288a5.622 5.622 0 0 0 4.925-2.849 5.615 5.615 0 0 0 0-5.69l-14.214-24.617a5.621 5.621 0 0 0-4.925-2.848 5.621 5.621 0 0 0-4.925 2.848l-14.214 24.618a6.267 6.267 0 0 0-.319.643.998.998 0 0 1-.069.14L101.724 54.4l-.823 1.313-2.529 4.39a1.27 1.27 0 0 1-1.103.636h-7.83c-.452 0-.873-.242-1.102-.637-.23-.394-.23-.879 0-1.274l2.188-3.791H66.803c-3.32 0-6.454-1.122-8.818-3.167a17.141 17.141 0 0 1-3.394-3.96 1.261 1.261 0 0 1-.091-.137L34.2 12.573a5.622 5.622 0 0 0-4.925-2.849 5.621 5.621 0 0 0-4.924 2.85L10.137 37.19a5.615 5.615 0 0 0 0 5.69 5.63 5.63 0 0 0 4.925 2.841h29.862a1.276 1.276 0 0 1 1.102 1.912l-3.912 6.778a1.27 1.27 0 0 1-1.102.638H14.495c-3.32 0-6.454-1.128-8.817-3.173-5.906-5.104-7.36-12.883-3.62-19.363L16.267 7.89C18.872 3.385 23.517.583 28.697.39c.184-.006.356-.006.534-.006 5.378 0 10.45 3.007 13.246 7.85l12.986 22.372L68.58 7.891C71.186 3.385 75.83.582 81.01.39c.185-.006.358-.006.536-.006 4.453 0 8.71 2.039 11.672 5.588.337.407.388.98.127 1.446l-3.765 6.6a1.268 1.268 0 0 1-2.205.006l-.847-1.465a5.623 5.623 0 0 0-4.926-2.848 5.622 5.622 0 0 0-4.924 2.848L62.464 37.18a5.614 5.614 0 0 0 0 5.689 5.628 5.628 0 0 0 4.925 2.842H95.91L117.76 7.87c2.714-4.683 7.575-7.486 12.99-7.486Z"/></g><defs><clipPath id="a"><path fill="#fff" d="M0 .385h160v60.36H0z"/></clipPath></defs></svg>
